assets/images/Expo/Features/shop.svg

<svg width="56" height="56" viewBox="0 0 56 56" fill="none" xmlns="http://www.w3.org/2000/svg">
<circle cx="28" cy="28" r="28" fill="white"/>
<path d="M42.7898 19.6892L36.5104 16.1008C36.5084 16.0996 36.5064 16.0988 36.5043 16.0977C36.4896 16.0896 36.4746 16.082 36.4594 16.0749C36.4517 16.0711 36.444 16.0672 36.4361 16.0638C36.4219 16.0574 36.4072 16.0523 36.3924 16.0469C36.3831 16.0436 36.374 16.0397 36.3646 16.0367C36.3524 16.0329 36.3398 16.0298 36.3274 16.0265C36.3152 16.0232 36.303 16.0197 36.2908 16.0171C36.281 16.0151 36.271 16.0137 36.2612 16.012C36.2458 16.0095 36.2304 16.0067 36.2151 16.0051C36.2067 16.0042 36.198 16.0038 36.1897 16.0033C36.1728 16.0019 36.156 16.001 36.1391 16.0007L36.1322 16.0005H32.067C31.8649 16.0005 31.671 16.0808 31.528 16.2237C31.3851 16.3667 31.3048 16.5606 31.3048 16.7627C31.3048 17.6387 30.9568 18.4789 30.3373 19.0983C29.7179 19.7177 28.8778 20.0657 28.0018 20.0657C27.1258 20.0657 26.2856 19.7177 25.6662 19.0983C25.0468 18.4789 24.6988 17.6387 24.6988 16.7627C24.6988 16.5606 24.6185 16.3667 24.4755 16.2237C24.3326 16.0808 24.1387 16.0005 23.9365 16.0005H19.8713L19.8645 16.0009C19.8477 16.0009 19.8309 16.0021 19.8141 16.0034C19.8055 16.004 19.7969 16.0043 19.7884 16.0052C19.7731 16.0068 19.7579 16.0095 19.7427 16.0122C19.7327 16.0138 19.7225 16.0151 19.7128 16.0173C19.7006 16.0198 19.6886 16.0234 19.6767 16.0265C19.664 16.0298 19.6513 16.0329 19.6388 16.0369C19.6297 16.0399 19.6207 16.0436 19.6115 16.0469C19.5967 16.0523 19.5818 16.0577 19.5674 16.0639C19.5596 16.0673 19.5521 16.0714 19.5443 16.0751C19.5291 16.0823 19.5138 16.0895 19.4992 16.0978L19.4931 16.1008L13.2136 19.6892C12.8191 19.9149 12.5259 20.2831 12.3942 20.7181C12.2625 21.1531 12.3023 21.6221 12.5054 22.0287L14.8434 26.7049C14.9902 27.001 15.217 27.2501 15.4982 27.4239C15.7794 27.5977 16.1036 27.6892 16.4342 27.688H19.1091V38.1052C19.1096 38.5767 19.2972 39.0288 19.6306 39.3622C19.964 39.6956 20.4161 39.8832 20.8876 39.8837H35.1159C35.5875 39.8832 36.0395 39.6956 36.373 39.3622C36.7064 39.0288 36.8939 38.5767 36.8945 38.1052V27.688H39.5694C39.8999 27.6891 40.2242 27.5976 40.5054 27.4238C40.7865 27.25 41.0134 27.0009 41.1602 26.7048L43.4982 22.0287C43.7013 21.6221 43.741 21.1531 43.6093 20.7181C43.4776 20.283 43.1844 19.9149 42.7898 19.6892V19.6892ZM16.4342 26.1636C16.387 26.1637 16.3407 26.1507 16.3005 26.1259C16.2604 26.101 16.228 26.0655 16.207 26.0232L13.8687 21.347C13.8398 21.2889 13.8341 21.2219 13.8529 21.1598C13.8718 21.0976 13.9136 21.045 13.97 21.0128L19.1091 18.0762V26.1636H16.4342ZM35.37 38.1052C35.3699 38.1725 35.3432 38.2371 35.2955 38.2848C35.2479 38.3324 35.1833 38.3592 35.1159 38.3593H20.8876C20.8203 38.3592 20.7557 38.3324 20.708 38.2848C20.6604 38.2371 20.6336 38.1725 20.6335 38.1052V17.525H23.2344C23.4158 18.6588 23.9953 19.6909 24.8691 20.436C25.7428 21.1811 26.8535 21.5904 28.0018 21.5904C29.1501 21.5904 30.2608 21.1811 31.1345 20.436C32.0082 19.6909 32.5878 18.6588 32.7691 17.525H35.37V38.1052ZM42.1347 21.347L39.7965 26.0232C39.7756 26.0655 39.7432 26.101 39.703 26.1259C39.6629 26.1507 39.6166 26.1637 39.5694 26.1636H36.8945V18.0763L42.0334 21.0128C42.0898 21.045 42.1317 21.0976 42.1505 21.1597C42.1693 21.2218 42.1637 21.2888 42.1347 21.3469V21.347Z" fill="#010107"/>
</svg>

<svg xmlns="http://www.w3.org/2000/svg" width="56" height="56" fill="none" viewBox="0 0 56 56"><circle cx="28" cy="28" r="28" fill="#fff"/><path fill="#010107" d="M42.79 19.69l-6.28-3.59-.006-.002a.756.756 0 0 0-.045-.023l-.023-.011c-.014-.007-.029-.012-.044-.017l-.027-.01-.038-.01-.036-.01-.03-.005-.046-.007-.025-.002a.78.78 0 0 0-.05-.002h-4.073a.763.763 0 0 0-.762.762 3.303 3.303 0 1 1-6.606 0 .762.762 0 0 0-.763-.763h-4.071a.654.654 0 0 0-.05.003l-.027.002-.045.007-.03.005-.036.01-.038.01-.027.01a.413.413 0 0 0-.045.017l-.023.011-.045.023-.006.003-6.28 3.588a1.78 1.78 0 0 0-.708 2.34l2.338 4.676a1.769 1.769 0 0 0 1.591.983h2.675v10.417a1.78 1.78 0 0 0 1.779 1.779h14.228a1.78 1.78 0 0 0 1.779-1.779V27.688h2.674a1.77 1.77 0 0 0 1.591-.983l2.338-4.676a1.78 1.78 0 0 0-.708-2.34zm-26.356 6.474a.254.254 0 0 1-.227-.14l-2.338-4.677a.255.255 0 0 1 .101-.334l5.14-2.937v8.088h-2.676zM35.37 38.105a.254.254 0 0 1-.254.254H20.888a.255.255 0 0 1-.255-.254v-20.58h2.601a4.828 4.828 0 0 0 9.535 0h2.601v20.58zm6.765-16.758l-2.338 4.676a.252.252 0 0 1-.228.14h-2.675v-8.087l5.14 2.937a.254.254 0 0 1 .1.334z"/></svg>
